GNOME++/mimetypes/16/gdform.svg

<?xml version="1.0" encoding="UTF-8" standalone="no"?>
<svg
   xmlns:dc="http://purl.org/dc/elements/1.1/"
   xmlns:cc="http://creativecommons.org/ns#"
   xmlns:rdf="http://www.w3.org/1999/02/22-rdf-syntax-ns#"
   xmlns:svg="http://www.w3.org/2000/svg"
   xmlns="http://www.w3.org/2000/svg"
   xmlns:sodipodi="http://sodipodi.sourceforge.net/DTD/sodipodi-0.dtd"
   xmlns:inkscape="http://www.inkscape.org/namespaces/inkscape"
   style="isolation:isolate"
   width="16"
   height="16"
   viewBox="0 0 16 16"
   version="1.1"
   id="svg65"
   sodipodi:docname="gdform.svg"
   inkscape:version="0.92.3 (2405546, 2018-03-11)">
  <metadata
     id="metadata69">
    <rdf:RDF>
      <cc:Work
         rdf:about="">
        <dc:format>image/svg+xml</dc:format>
        <dc:type
           rdf:resource="http://purl.org/dc/dcmitype/StillImage" />
      </cc:Work>
    </rdf:RDF>
  </metadata>
  <sodipodi:namedview
     pagecolor="#ffffff"
     bordercolor="#666666"
     borderopacity="1"
     objecttolerance="10"
     gridtolerance="10"
     guidetolerance="10"
     inkscape:pageopacity="0"
     inkscape:pageshadow="2"
     inkscape:window-width="1920"
     inkscape:window-height="1009"
     id="namedview67"
     showgrid="false"
     inkscape:zoom="52.1875"
     inkscape:cx="8"
     inkscape:cy="8"
     inkscape:window-x="0"
     inkscape:window-y="34"
     inkscape:window-maximized="1"
     inkscape:current-layer="svg65" />
  <defs
     id="defs61">
    <style
       id="current-color-scheme"
       type="text/css">
   .ColorScheme-Text { color:#241f31; } .ColorScheme-Highlight { color:#5294e2; }
  </style>
    <linearGradient
       id="arrongin"
       x1="0%"
       x2="0%"
       y1="0%"
       y2="100%">
      <stop
         offset="0%"
         style="stop-color:#dd9b44; stop-opacity:1"
         id="stop3" />
      <stop
         offset="100%"
         style="stop-color:#ad6c16; stop-opacity:1"
         id="stop5" />
    </linearGradient>
    <linearGradient
       id="aurora"
       x1="0%"
       x2="0%"
       y1="0%"
       y2="100%">
      <stop
         offset="0%"
         style="stop-color:#09D4DF; stop-opacity:1"
         id="stop8" />
      <stop
         offset="100%"
         style="stop-color:#9269F4; stop-opacity:1"
         id="stop10" />
    </linearGradient>
    <linearGradient
       id="fitdance"
       x1="0%"
       x2="0%"
       y1="0%"
       y2="100%">
      <stop
         offset="0%"
         style="stop-color:#1AD6AB; stop-opacity:1"
         id="stop13" />
      <stop
         offset="100%"
         style="stop-color:#329DB6; stop-opacity:1"
         id="stop15" />
    </linearGradient>
    <linearGradient
       id="oomox"
       x1="0%"
       x2="0%"
       y1="0%"
       y2="100%">
      <stop
         offset="0%"
         style="stop-color:#efefe7; stop-opacity:1"
         id="stop18" />
      <stop
         offset="100%"
         style="stop-color:#8f8f8b; stop-opacity:1"
         id="stop20" />
    </linearGradient>
    <linearGradient
       id="rainblue"
       x1="0%"
       x2="0%"
       y1="0%"
       y2="100%">
      <stop
         offset="0%"
         style="stop-color:#00F260; stop-opacity:1"
         id="stop23" />
      <stop
         offset="100%"
         style="stop-color:#0575E6; stop-opacity:1"
         id="stop25" />
    </linearGradient>
    <linearGradient
       id="sunrise"
       x1="0%"
       x2="0%"
       y1="0%"
       y2="100%">
      <stop
         offset="0%"
         style="stop-color: #FF8501; stop-opacity:1"
         id="stop28" />
      <stop
         offset="100%"
         style="stop-color: #FFCB01; stop-opacity:1"
         id="stop30" />
    </linearGradient>
    <linearGradient
       id="telinkrin"
       x1="0%"
       x2="0%"
       y1="0%"
       y2="100%">
      <stop
         offset="0%"
         style="stop-color: #b2ced6; stop-opacity:1"
         id="stop33" />
      <stop
         offset="100%"
         style="stop-color: #6da5b7; stop-opacity:1"
         id="stop35" />
    </linearGradient>
    <linearGradient
       id="60spsycho"
       x1="0%"
       x2="0%"
       y1="0%"
       y2="100%">
      <stop
         offset="0%"
         style="stop-color: #df5940; stop-opacity:1"
         id="stop38" />
      <stop
         offset="25%"
         style="stop-color: #d8d15f; stop-opacity:1"
         id="stop40" />
      <stop
         offset="50%"
         style="stop-color: #e9882a; stop-opacity:1"
         id="stop42" />
      <stop
         offset="100%"
         style="stop-color: #279362; stop-opacity:1"
         id="stop44" />
    </linearGradient>
    <linearGradient
       id="90ssummer"
       x1="0%"
       x2="0%"
       y1="0%"
       y2="100%">
      <stop
         offset="0%"
         style="stop-color: #f618c7; stop-opacity:1"
         id="stop47" />
      <stop
         offset="20%"
         style="stop-color: #94ffab; stop-opacity:1"
         id="stop49" />
      <stop
         offset="50%"
         style="stop-color: #fbfd54; stop-opacity:1"
         id="stop51" />
      <stop
         offset="100%"
         style="stop-color: #0f83ae; stop-opacity:1"
         id="stop53" />
    </linearGradient>
    <linearGradient
       id="cyberneon"
       x1="0%"
       x2="0%"
       y1="0%"
       y2="100%">
      <stop
         offset="0"
         style="stop-color:#0abdc6; stop-opacity:1"
         id="stop56" />
      <stop
         offset="1"
         style="stop-color:#ea00d9; stop-opacity:1"
         id="stop58" />
    </linearGradient>
  </defs>
  <path
     style="color:#241f31;fill:currentColor;fill-rule:evenodd"
     class="ColorScheme-Text"
     d="m 3.428571,13.142857 v 1.142857 H 16 V 13.142857 H 3.428571 v 0 0 z m 0,-11.428571 V 4 H 16 V 1.714286 H 3.428571 v 0 0 0 0 0 0 z m 0,4.571428 V 8.571429 H 16 V 6.285714 H 3.428571 v 0 0 0 0 0 z m 0,2.285715 V 9.714286 H 16 V 8.571429 H 3.428571 v 0 0 0 0 z m 0,2.285714 v 2.285714 H 16 V 10.857143 H 3.428571 v 0 0 0 z M 3.428571,4 V 5.142857 H 16 V 4 H 3.428571 V 4 4 4 4 4 4 Z M 0,1.714286 H 2.285714 V 4 H 0 v -2.285714 0 z M 0,4 H 2.285714 V 5.142857 H 0 V 4 Z M 0,6.285714 H 2.285714 V 8.571429 H 0 Z M 0,8.571429 H 2.285714 V 9.714286 H 0 Z m 0,2.285714 h 2.285714 v 2.285714 H 0 Z m 0,2.285714 h 2.285714 v 1.142857 H 0 Z"
     id="path63"
     inkscape:connector-curvature="0"
     sodipodi:nodetypes="cccccccccccccccccccccccccccccccccccccccccccccccccccccccccccccccccccccccccccccccccccccccccccccccccccccccc" />
</svg>

<svg xmlns="http://www.w3.org/2000/svg" xmlns:xlink="http://www.w3.org/1999/xlink" style="isolation:isolate" width="16" height="16" viewBox="0 0 16 16">
 <defs>
   <style id="current-color-scheme" type="text/css">
   .ColorScheme-Text { color:#241f31; } .ColorScheme-Highlight { color:#5294e2; }
  </style>
  <linearGradient id="arrongin" x1="0%" x2="0%" y1="0%" y2="100%">
   <stop offset="0%" style="stop-color:#dd9b44; stop-opacity:1"/>
   <stop offset="100%" style="stop-color:#ad6c16; stop-opacity:1"/>
  </linearGradient>
  <linearGradient id="aurora" x1="0%" x2="0%" y1="0%" y2="100%">
   <stop offset="0%" style="stop-color:#09D4DF; stop-opacity:1"/>
   <stop offset="100%" style="stop-color:#9269F4; stop-opacity:1"/>
  </linearGradient>
  <linearGradient id="fitdance" x1="0%" x2="0%" y1="0%" y2="100%">
   <stop offset="0%" style="stop-color:#1AD6AB; stop-opacity:1"/>
   <stop offset="100%" style="stop-color:#329DB6; stop-opacity:1"/>
  </linearGradient>
  <linearGradient id="oomox" x1="0%" x2="0%" y1="0%" y2="100%">
   <stop offset="0%" style="stop-color:#efefe7; stop-opacity:1"/>
   <stop offset="100%" style="stop-color:#8f8f8b; stop-opacity:1"/>
  </linearGradient>
  <linearGradient id="rainblue" x1="0%" x2="0%" y1="0%" y2="100%">
   <stop offset="0%" style="stop-color:#00F260; stop-opacity:1"/>
   <stop offset="100%" style="stop-color:#0575E6; stop-opacity:1"/>
  </linearGradient>
  <linearGradient id="sunrise" x1="0%" x2="0%" y1="0%" y2="100%">
   <stop offset="0%" style="stop-color: #FF8501; stop-opacity:1"/>
   <stop offset="100%" style="stop-color: #FFCB01; stop-opacity:1"/>
  </linearGradient>
  <linearGradient id="telinkrin" x1="0%" x2="0%" y1="0%" y2="100%">
   <stop offset="0%" style="stop-color: #b2ced6; stop-opacity:1"/>
   <stop offset="100%" style="stop-color: #6da5b7; stop-opacity:1"/>
  </linearGradient>
  <linearGradient id="60spsycho" x1="0%" x2="0%" y1="0%" y2="100%">
   <stop offset="0%" style="stop-color: #df5940; stop-opacity:1"/>
   <stop offset="25%" style="stop-color: #d8d15f; stop-opacity:1"/>
   <stop offset="50%" style="stop-color: #e9882a; stop-opacity:1"/>
   <stop offset="100%" style="stop-color: #279362; stop-opacity:1"/>
  </linearGradient>
  <linearGradient id="90ssummer" x1="0%" x2="0%" y1="0%" y2="100%">
   <stop offset="0%" style="stop-color: #f618c7; stop-opacity:1"/>
   <stop offset="20%" style="stop-color: #94ffab; stop-opacity:1"/>
   <stop offset="50%" style="stop-color: #fbfd54; stop-opacity:1"/>
   <stop offset="100%" style="stop-color: #0f83ae; stop-opacity:1"/>
  </linearGradient>
  <linearGradient id="cyberneon" x1="0%" x2="0%" y1="0%" y2="100%">
    <stop offset="0" style="stop-color:#0abdc6; stop-opacity:1"/>
    <stop offset="1" style="stop-color:#ea00d9; stop-opacity:1"/>
  </linearGradient>
 </defs>
   <path style="fill:currentColor;" class="ColorScheme-Text" fill-rule="evenodd" d="M 3.428571 13.142857 L 3.428571 14.285714 L 16 14.285714 L 16 13.142857 L 3.428571 13.142857 L 3.428571 13.142857 L 3.428571 13.142857 L 3.428571 13.142857 L 3.428571 13.142857 L 3.428571 13.142857 L 3.428571 13.142857 Z M 3.428571 1.714286 L 3.428571 2.857143 L 16 2.857143 L 16 1.714286 L 3.428571 1.714286 L 3.428571 1.714286 L 3.428571 1.714286 L 3.428571 1.714286 L 3.428571 1.714286 L 3.428571 1.714286 L 3.428571 1.714286 L 3.428571 1.714286 L 3.428571 1.714286 L 3.428571 1.714286 L 3.428571 1.714286 Z M 3.428571 6.285714 L 3.428571 7.428571 L 16 7.428571 L 16 6.285714 L 3.428571 6.285714 L 3.428571 6.285714 L 3.428571 6.285714 L 3.428571 6.285714 L 3.428571 6.285714 L 3.428571 6.285714 L 3.428571 6.285714 L 3.428571 6.285714 L 3.428571 6.285714 L 3.428571 6.285714 Z M 3.428571 8.571429 L 3.428571 9.714286 L 16 9.714286 L 16 8.571429 L 3.428571 8.571429 L 3.428571 8.571429 L 3.428571 8.571429 L 3.428571 8.571429 L 3.428571 8.571429 L 3.428571 8.571429 L 3.428571 8.571429 L 3.428571 8.571429 L 3.428571 8.571429 Z M 3.428571 10.857143 L 3.428571 12 L 16 12 L 16 10.857143 L 3.428571 10.857143 L 3.428571 10.857143 L 3.428571 10.857143 L 3.428571 10.857143 L 3.428571 10.857143 L 3.428571 10.857143 L 3.428571 10.857143 L 3.428571 10.857143 Z M 3.428571 4 L 3.428571 5.142857 L 16 5.142857 L 16 4 L 3.428571 4 L 3.428571 4 L 3.428571 4 L 3.428571 4 L 3.428571 4 L 3.428571 4 L 3.428571 4 L 3.428571 4 L 3.428571 4 L 3.428571 4 L 3.428571 4 Z M 0 1.714286 L 2.285714 1.714286 L 2.285714 2.857143 L 0 2.857143 L 0 1.714286 L 0 1.714286 L 0 1.714286 L 0 1.714286 L 0 1.714286 L 0 1.714286 Z M 0 4 L 2.285714 4 L 2.285714 5.142857 L 0 5.142857 L 0 4 L 0 4 L 0 4 L 0 4 L 0 4 Z M 0 6.285714 L 2.285714 6.285714 L 2.285714 7.428571 L 0 7.428571 L 0 6.285714 L 0 6.285714 L 0 6.285714 L 0 6.285714 Z M 0 8.571429 L 2.285714 8.571429 L 2.285714 9.714286 L 0 9.714286 L 0 8.571429 L 0 8.571429 L 0 8.571429 Z M 0 10.857143 L 2.285714 10.857143 L 2.285714 12 L 0 12 L 0 10.857143 L 0 10.857143 Z M 0 13.142857 L 2.285714 13.142857 L 2.285714 14.285714 L 0 14.285714 L 0 13.142857 Z"/>
</svg>
